; generated by PrusaSlicer 2.7.1+linux-x64-GTK3


; printer_model = 
; filament_type = PLA
; nozzle_diameter = 0.35
; bed_temperature = 0
; brim_width = 0
; fill_density = 20%
; layer_height = 0.3
; temperature = 200
; ironing = 0
; support_material = 0
; extruder_colour = ""
; max_layer_z = 15.05
; filament used [mm] = 5903.43
; filament used [g] = 0.00
; filament cost = 0.00
; filament used [cm3] = 14.20
; total filament used for wipe tower [g] = 0.00
; estimated printing time (normal mode) = 1h 36m 4s
; estimated printing time (silent mode) = 1h 38m 38s

M104 S200
;TYPE:Custom
G28
G1 Z5 F5000
M109 S200
G21
G90
M82
G92 E0
; Filament gcode
M107
;LAYER_CHANGE
;Z:0.35
;HEIGHT:0.35
G1 Z.35 F7800
G1 E-2 F2400
G92 E0
G1 X62.818 Y51.121 F7800
G1 E2 F2400
;TYPE:Skirt/Brim
;WIDTH:0.7
G1 F1800
G1 X64.32 Y49.388 E2.20853
G1 X66.322 Y48.271 E2.41699
G1 X68.5 Y47.903 E2.61784
G1 X138.5 Y47.903 E8.98291
G1 X140.759 Y48.299 E9.19145
G1 X142.747 Y49.443 E9.40001
G1 X144.226 Y51.196 E9.60856
G1 X145.019 Y53.348 E9.8171
G1 X145.125 Y54.527 E9.92474
G1 X145.125 Y115.527 E15.47144
G1 X144.38 Y118.579 E15.75711
G1 X132.193 Y142.058 E18.16251
G1 X131.156 Y143.867 E18.35211
G1 X130.342 Y144.987 E18.47801
G1 X129.146 Y146.316 E18.64058
G1 X128.117 Y147.243 E18.76652
G1 X126.67 Y148.294 E18.92914
G1 X125.471 Y148.986 E19.05502
G1 X123.837 Y149.713 E19.21764
G1 X122.52 Y150.141 E19.34356
G1 X120.771 Y150.513 E19.50615
G1 X119.394 Y150.658 E19.63205
G1 X87.606 Y150.658 E22.52252
G1 X86.229 Y150.513 E22.64842
G1 X84.48 Y150.141 E22.81101
G1 X83.163 Y149.713 E22.93693
G1 X81.596 Y149.016 E23.09288
G1 X80.33 Y148.294 E23.2254
G1 X78.883 Y147.243 E23.38802
G1 X77.854 Y146.316 E23.51396
G1 X76.074 Y144.237 E23.76283
G1 X55.993 Y114.21 E27.04747
G1 X55.067 Y112.112 E27.256
G1 X54.875 Y110.527 E27.40118
G1 X54.875 Y90.527 E29.21977
G1 X54.997 Y89.263 E29.33524
G1 X61.997 Y53.263 E32.67001
G1 X62.799 Y51.17 E32.87382
G1 E30.87382 F2400
G92 E0
G1 X62.799 Y51.17 F7800
G1 X89.226 Y128.622
G1 E2 F2400
;TYPE:Perimeter
;WIDTH:0.7
G1 F1800
G1 X90.646 Y128.923 E2.13199
G1 X91.972 Y129.514 E2.264
G1 X93.146 Y130.367 E2.39595
G1 X94.118 Y131.446 E2.528
G1 X94.844 Y132.703 E2.65999
G1 X95.292 Y134.084 E2.79201
G1 X95.427 Y135.364 E2.90905
G1 X95.427 Y135.691 E2.93878
G1 X95.292 Y136.971 E3.05582
G1 X94.844 Y138.352 E3.18784
G1 X94.118 Y139.609 E3.31983
G1 X93.146 Y140.688 E3.45188
G1 X91.972 Y141.541 E3.58383
G1 X90.646 Y142.131 E3.7158
G1 X89.226 Y142.433 E3.84781
G1 X87.774 Y142.433 E3.97984
G1 X86.354 Y142.131 E4.11185
G1 X85.028 Y141.541 E4.24382
G1 X83.854 Y140.688 E4.37577
G1 X82.882 Y139.609 E4.50782
G1 X82.156 Y138.352 E4.63981
G1 X81.708 Y136.971 E4.77183
G1 X81.556 Y135.527 E4.90386
G1 X81.708 Y134.084 E5.0358
G1 X82.156 Y132.703 E5.16782
G1 X82.882 Y131.446 E5.29981
G1 X83.854 Y130.367 E5.43186
G1 X85.028 Y129.514 E5.56381
G1 X86.354 Y128.923 E5.69582
G1 X87.774 Y128.622 E5.82781
G1 X89.173 Y128.622 E5.95502
G1 X89.292 Y127.997 F7800
G1 F1800
G1 X90.84 Y128.326 E6.09892
G1 X92.286 Y128.97 E6.24285
G1 X93.567 Y129.9 E6.38679
G1 X94.626 Y131.077 E6.53076
G1 X95.418 Y132.447 E6.67465
G1 X95.907 Y133.953 E6.81863
G1 X96.048 Y135.298 E6.9416
G1 X96.048 Y135.756 E6.98325
G1 X95.907 Y137.102 E7.10631
G1 X95.418 Y138.607 E7.2502
G1 X94.626 Y139.978 E7.39417
G1 X93.567 Y141.155 E7.53814
G1 X92.286 Y142.085 E7.68208
G1 X90.84 Y142.729 E7.82601
G1 X89.292 Y143.058 E7.96991
G1 X87.708 Y143.058 E8.11394
G1 X86.16 Y142.729 E8.25784
G1 X84.714 Y142.085 E8.40177
G1 X83.433 Y141.155 E8.54571
G1 X82.374 Y139.978 E8.68968
G1 X81.582 Y138.607 E8.83365
G1 X81.093 Y137.102 E8.97754
G1 X80.928 Y135.527 E9.12154
G1 X81.093 Y133.953 E9.26545
G1 X81.582 Y132.447 E9.40943
G1 X82.374 Y131.077 E9.55332
G1 X83.433 Y129.9 E9.69729
G1 X84.714 Y128.97 E9.84123
G1 X86.16 Y128.326 E9.98516
G1 X87.708 Y127.997 E10.12906
G1 X89.239 Y127.997 E10.26827
G1 X89.357 Y127.372 F7800
;TYPE:External perimeter
G1 F1800
G1 X91.034 Y127.728 E10.42416
G1 X92.6 Y128.425 E10.58002
G1 X93.987 Y129.433 E10.73593
G1 X95.134 Y130.707 E10.89181
G1 X95.992 Y132.192 E11.04776
G1 X96.521 Y133.822 E11.20359
G1 X96.701 Y135.527 E11.35949
G1 X96.67 Y135.822 E11.38646
G1 X96.521 Y137.232 E11.51538
G1 X95.992 Y138.863 E11.67129
G1 X95.134 Y140.348 E11.82724
G1 X93.987 Y141.622 E11.98312
G1 X92.6 Y142.629 E12.13897
G1 X91.034 Y143.327 E12.29487
G1 X89.357 Y143.683 E12.45076
G1 X87.643 Y143.683 E12.60661
G1 X85.966 Y143.327 E12.7625
G1 X84.4 Y142.629 E12.9184
G1 X83.013 Y141.622 E13.07425
G1 X81.866 Y140.348 E13.23013
G1 X81.008 Y138.863 E13.38608
G1 X80.479 Y137.232 E13.54199
G1 X80.299 Y135.527 E13.69789
G1 X80.479 Y133.822 E13.85379
G1 X81.008 Y132.192 E14.00962
G1 X81.866 Y130.707 E14.16557
G1 X83.013 Y129.433 E14.32145
G1 X84.4 Y128.425 E14.47736
G1 X85.966 Y127.728 E14.63322
G1 X87.643 Y127.372 E14.78911
G1 X89.305 Y127.372 E14.94023
G1 X89.649 Y127.435 F7800
G1 E12.94023 F2400
G92 E0
G1 X85.478 Y133.375 F7800
G1 E2 F2400
;TYPE:Perimeter
G1 F1800
G1 X87.027 Y132.121 E2.18122
G1 X87.424 Y131.89 E2.22299
G1 X87.971 Y131.78 E2.27372
G1 X88.683 Y131.895 E2.3393
G1 X90.245 Y132.252 E2.48499
G1 X90.531 Y132.347 E2.51239
G1 X90.992 Y132.66 E2.56306
G1 X91.222 Y132.946 E2.59643
G1 X91.317 Y133.12 E2.61446
G1 X92.149 Y134.85 E2.78901
G1 X92.295 Y135.364 E2.8376
G1 X92.295 Y135.691 E2.86733
G1 X92.205 Y136.073 E2.90302
G1 X91.305 Y137.958 E3.09296
G1 X90.992 Y138.395 E3.14184
G1 X90.584 Y138.684 E3.1873
G1 X90.245 Y138.803 E3.21997
G1 X88.349 Y139.236 E3.39681
G1 X87.945 Y139.274 E3.43371
G1 X87.424 Y139.165 E3.48211
G1 X87.027 Y138.934 E3.52388
G1 X85.506 Y137.721 E3.70078
G1 X85.283 Y137.503 E3.72914
G1 X85.04 Y137.105 E3.77154
G1 X84.919 Y136.565 E3.82186
G1 X84.918 Y134.555 E4.00463
G1 X84.995 Y134.072 E4.0491
G1 X85.04 Y133.95 E4.06092
G1 X85.343 Y133.484 E4.11146
G1 X85.437 Y133.408 E4.12245
G1 X85.884 Y133.843 F7800
G1 F1800
G1 X87.417 Y132.609 E4.3014
G1 X87.655 Y132.471 E4.32642
G1 X88.001 Y132.405 E4.35845
G1 X88.544 Y132.504 E4.40864
G1 X90.106 Y132.861 E4.55433
G1 X90.449 Y133.016 E4.58856
G1 X90.692 Y133.277 E4.62099
G1 X90.754 Y133.392 E4.63287
G1 X91.586 Y135.121 E4.80734
G1 X91.674 Y135.429 E4.83647
G1 X91.643 Y135.785 E4.86896
G1 X90.742 Y137.687 E5.06033
G1 X90.554 Y137.949 E5.08965
G1 X90.278 Y138.137 E5.12002
G1 X88.21 Y138.627 E5.31327
G1 X87.968 Y138.65 E5.33537
G1 X87.62 Y138.569 E5.36786
G1 X87.273 Y138.331 E5.40612
G1 X85.896 Y137.233 E5.56626
G1 X85.669 Y136.969 E5.59792
G1 X85.589 Y136.79 E5.61575
G1 X85.543 Y136.5 E5.64245
G1 X85.543 Y134.555 E5.81931
G1 X85.616 Y134.192 E5.85298
G1 X85.798 Y133.912 E5.88335
G1 X85.843 Y133.876 E5.88859
G1 X86.25 Y134.357 F7800
;TYPE:External perimeter
G1 F1800
G1 X86.286 Y134.31 E5.89397
G1 X87.806 Y133.098 E6.07074
G1 X88.001 Y133.029 E6.08955
G1 X89.967 Y133.47 E6.27276
G1 X90.13 Y133.566 E6.28996
G1 X90.19 Y133.663 E6.30033
G1 X91.023 Y135.392 E6.47484
G1 X91.052 Y135.56 E6.49034
G1 X90.179 Y137.416 E6.67684
G1 X90.024 Y137.566 E6.69645
G1 X88.071 Y138.017 E6.87871
G1 X87.874 Y137.998 E6.89671
G1 X86.286 Y136.744 E7.0807
G1 X86.183 Y136.597 E7.09702
G1 X86.168 Y134.555 E7.2827
G1 X86.192 Y134.434 E7.29392
G1 X86.219 Y134.399 E7.29794
G1 X86.477 Y134.162 F7800
G1 E5.29794 F2400
G92 E0
G1 X94.385 Y132.284 F7800
G1 E2 F2400
;TYPE:Solid infill
;WIDTH:0.72059
G1 F1800
G1 X92.784 Y130.683 E2.21266
G1 X91.736 Y129.922 E2.33431
G1 X90.607 Y129.419 E2.4504
G1 X94.572 Y133.384 E2.97707
G1 X94.831 Y134.182 E3.05587
G1 X94.875 Y134.6 E3.09535
G1 X89.416 Y129.141 E3.82047
G1 X89.177 Y129.09 E3.84342
G1 X88.453 Y129.09 E3.91142
G1 X94.965 Y135.602 E4.77641
G1 X94.878 Y136.428 E4.85442
G1 X92.084 Y133.635 E5.22548
G1 X91.617 Y132.693 E5.32423
G1 X91.323 Y132.327 E5.36832
G1 X91.09 Y132.13 E5.39698
G1 X90.722 Y131.918 E5.43687
G1 X90.213 Y131.764 E5.48682
G1 X87.59 Y129.14 E5.8353
G1 X86.837 Y129.3 E5.9076
G1 X89.031 Y131.494 E6.19903
G1 X88.444 Y131.36 E6.25558
G1 X87.937 Y131.314 E6.3034
G1 X86.151 Y129.527 E6.5407
G1 X85.519 Y129.808 E6.60566
G1 X87.195 Y131.483 E6.82822
G1 X86.869 Y131.655 E6.86284
G1 X86.637 Y131.839 E6.89065
G1 X84.949 Y130.151 E7.11487
G1 X84.42 Y130.535 E7.17627
G1 X86.128 Y132.243 E7.40315
G1 X85.619 Y132.646 E7.46413
G1 X83.942 Y130.969 E7.68689
G1 X83.509 Y131.45 E7.74768
G1 X85.116 Y133.057 E7.96114
G1 X84.999 Y133.165 E7.9761
G1 X84.71 Y133.563 E8.0223
G1 X83.119 Y131.973 E8.23357
G1 X82.785 Y132.551 E8.29627
G1 X84.476 Y134.242 E8.52089
G1 X84.451 Y134.47 E8.54243
G1 X84.451 Y135.129 E8.60433
G1 X82.496 Y133.175 E8.86395
G1 X82.272 Y133.864 E8.932
G1 X84.731 Y136.322 E9.25856
G1 E7.25856 F2400
G92 E0
G1 X84.731 Y136.322 F7800
G1 X92.328 Y134.791
G1 E2 F2400
G1 F1800
G1 X94.728 Y137.191 E2.31879
G1 X94.504 Y137.88 E2.38684
G1 X92.697 Y136.073 E2.62687
G1 X92.574 Y136.403 E2.65995
G1 X92.425 Y136.714 E2.69234
G1 X94.215 Y138.504 E2.93011
G1 X93.881 Y139.082 E2.99281
G1 X92.128 Y137.33 E3.2256
G1 X91.831 Y137.946 E3.28983
G1 X93.491 Y139.605 E3.51026
G1 X93.058 Y140.085 E3.57098
G1 X91.49 Y138.518 E3.77919
G1 X91.318 Y138.732 E3.80498
G1 X91.024 Y138.964 E3.84016
G1 X92.58 Y140.52 E4.04684
G1 X92.051 Y140.904 E4.10824
G1 X90.396 Y139.249 E4.32808
G1 X89.653 Y139.419 E4.39967
G1 X91.481 Y141.247 E4.64248
G1 X90.849 Y141.528 E4.70744
G1 X88.91 Y139.589 E4.965
G1 X88.445 Y139.695 E5.0098
G1 X88.138 Y139.729 E5.03881
G1 X90.163 Y141.755 E5.30786
G1 X89.41 Y141.915 E5.38016
G1 X82.122 Y134.627 E6.34823
G1 X82.035 Y135.453 E6.42624
G1 X88.547 Y141.965 E7.29123
G1 X87.823 Y141.965 E7.35923
G1 X87.583 Y141.914 E7.38228
G1 X82.125 Y136.455 E8.10734
G1 X82.169 Y136.873 E8.14682
G1 X82.428 Y137.671 E8.22562
G1 X86.392 Y141.635 E8.75216
G1 X85.264 Y141.133 E8.86813
G1 X84.215 Y140.371 E8.98991
G1 X82.615 Y138.771 E9.20244
G1 E7.20244 F2400
G92 E0
G1 X82.615 Y138.771 F7800
G1 X113.854 Y130.367
G1 E2 F2400
;TYPE:Perimeter
;WIDTH:0.7
G1 F1800
G1 X115.028 Y129.514 E2.13195
G1 X116.354 Y128.923 E2.26396
G1 X117.774 Y128.622 E2.39595
G1 X119.226 Y128.622 E2.52798
G1 X120.646 Y128.923 E2.65997
G1 X121.972 Y129.514 E2.79198
G1 X123.146 Y130.367 E2.92393
G1 X124.118 Y131.446 E3.05598
G1 X124.844 Y132.703 E3.18797
G1 X125.292 Y134.084 E3.31999
G1 X125.427 Y135.364 E3.43703
G1 X125.427 Y135.691 E3.46676
G1 X125.292 Y136.971 E3.5838
G1 X124.844 Y138.352 E3.71582
G1 X124.118 Y139.609 E3.84781
G1 X123.146 Y140.688 E3.97986
G1 X121.972 Y141.541 E4.11181
G1 X120.646 Y142.131 E4.24378
G1 X119.226 Y142.433 E4.37579
G1 X117.774 Y142.433 E4.50782
G1 X116.354 Y142.131 E4.63983
G1 X115.028 Y141.541 E4.7718
G1 X113.854 Y140.688 E4.90375
G1 X112.882 Y139.609 E5.0358
G1 X112.156 Y138.352 E5.16779
G1 X111.708 Y136.971 E5.29981
G1 X111.556 Y135.527 E5.43184
G1 X111.708 Y134.084 E5.56378
G1 X112.156 Y132.703 E5.6958
G1 X112.882 Y131.446 E5.82779
G1 X113.818 Y130.406 E5.95502
G1 X113.433 Y129.9 F7800
G1 F1800
G1 X114.714 Y128.97 E6.09896
G1 X116.16 Y128.326 E6.24289
G1 X117.708 Y127.997 E6.38679
G1 X119.292 Y127.997 E6.53082
G1 X120.84 Y128.326 E6.67472
G1 X122.286 Y128.97 E6.81865
G1 X123.567 Y129.9 E6.96259
G1 X124.626 Y131.077 E7.10656
G1 X125.418 Y132.447 E7.25045
G1 X125.907 Y133.953 E7.39443
G1 X126.048 Y135.298 E7.5174
G1 X126.048 Y135.756 E7.55905
G1 X125.907 Y137.102 E7.68211
G1 X125.418 Y138.607 E7.826
G1 X124.626 Y139.978 E7.96997
G1 X123.567 Y141.155 E8.11394
G1 X122.286 Y142.085 E8.25788
G1 X120.84 Y142.729 E8.40181
G1 X119.292 Y143.058 E8.54571
G1 X117.708 Y143.058 E8.68974
G1 X116.16 Y142.729 E8.83364
G1 X114.714 Y142.085 E8.97757
G1 X113.433 Y141.155 E9.12151
G1 X112.374 Y139.978 E9.26548
G1 X111.582 Y138.607 E9.40945
G1 X111.093 Y137.102 E9.55334
G1 X110.928 Y135.527 E9.69734
G1 X111.093 Y133.953 E9.84125
G1 X111.582 Y132.447 E9.98523
G1 X112.374 Y131.077 E10.12912
G1 X113.398 Y129.939 E10.26832
G1 X113.013 Y129.433 F7800
;TYPE:External perimeter
G1 F1800
G1 X114.4 Y128.425 E10.42423
G1 X115.966 Y127.728 E10.58009
G1 X117.643 Y127.372 E10.73598
G1 X119.357 Y127.372 E10.89183
G1 X121.034 Y127.728 E11.04772
G1 X122.6 Y128.425 E11.20358
G1 X123.987 Y129.433 E11.35949
G1 X125.134 Y130.707 E11.51537
G1 X125.992 Y132.192 E11.67132
G1 X126.521 Y133.822 E11.82715
G1 X126.701 Y135.527 E11.98305
G1 X126.67 Y135.822 E12.01002
G1 X126.521 Y137.232 E12.13894
G1 X125.992 Y138.863 E12.29485
G1 X125.134 Y140.348 E12.4508
G1 X123.987 Y141.622 E12.60668
G1 X122.6 Y142.629 E12.76253
G1 X121.034 Y143.327 E12.91843
G1 X119.357 Y143.683 E13.07432
G1 X117.643 Y143.683 E13.23017
G1 X115.966 Y143.327 E13.38606
G1 X114.4 Y142.629 E13.54196
G1 X113.013 Y141.622 E13.69781
G1 X111.866 Y140.348 E13.85369
G1 X111.008 Y138.863 E14.00964
G1 X110.479 Y137.232 E14.16555
G1 X110.299 Y135.527 E14.32145
G1 X110.479 Y133.822 E14.47735
G1 X111.008 Y132.192 E14.63318
G1 X111.866 Y130.707 E14.78913
G1 X112.978 Y129.472 E14.94024
G1 X113.255 Y129.259 F7800
G1 E12.94024 F2400
G92 E0
G1 X118.178 Y139.252 F7800
G1 E2 F2400
;TYPE:Perimeter
G1 F1800
G1 X117.945 Y139.274 E2.02128
G1 X117.424 Y139.165 E2.06968
G1 X117.027 Y138.934 E2.11145
G1 X115.506 Y137.721 E2.28835
G1 X115.283 Y137.503 E2.31671
G1 X115.04 Y137.105 E2.35911
G1 X114.919 Y136.565 E2.40943
G1 X114.918 Y134.555 E2.5922
G1 X114.995 Y134.072 E2.63667
G1 X115.04 Y133.95 E2.64849
G1 X115.343 Y133.484 E2.69903
G1 X117.027 Y132.121 E2.89603
G1 X117.424 Y131.89 E2.9378
G1 X117.971 Y131.78 E2.98853
G1 X118.683 Y131.895 E3.05411
G1 X120.245 Y132.252 E3.1998
G1 X120.531 Y132.347 E3.2272
G1 X120.992 Y132.66 E3.27787